img/svg/device/blackberry.svg

<?xml version="1.0" encoding="iso-8859-1"?>
<!-- Generator: Adobe Illustrator 21.0.2, SVG Export Plug-In . SVG Version: 6.00 Build 0)  -->
<svg version="1.1" id="&#x56FE;&#x5C42;_1" xmlns="http://www.w3.org/2000/svg" xmlns:xlink="http://www.w3.org/1999/xlink" x="0px"
	 y="0px" viewBox="0 0 16 16" style="enable-background:new 0 0 16 16;" xml:space="preserve">
<path d="M5.51,4.119c0,0.659-0.429,1.369-1.932,1.369c-0.924,0-1.919,0-1.919,0L2.18,3.063c0,0,1.353,0,1.846,0
	C5.224,3.063,5.51,3.652,5.51,4.119L5.51,4.119z M10.477,4.119c0-0.467-0.285-1.056-1.483-1.056c-0.491,0-1.843,0-1.843,0
	L6.627,5.487c0,0,0.995,0,1.92,0C10.05,5.487,10.477,4.778,10.477,4.119L10.477,4.119z M4.844,7.768
	c0-0.467-0.286-1.053-1.484-1.053c-0.491,0-1.844,0-1.844,0L0.991,9.136c0,0,0.997,0,1.924,0C4.415,9.136,4.844,8.426,4.844,7.768
	L4.844,7.768z M9.811,7.768c0-0.467-0.285-1.053-1.482-1.053c-0.494,0-1.846,0-1.846,0L5.96,9.136c0,0,0.996,0,1.92,0
	C9.383,9.136,9.811,8.426,9.811,7.768L9.811,7.768z M15.009,6.288c0-0.466-0.284-1.056-1.482-1.056c-0.494,0-1.845,0-1.845,0
	l-0.525,2.426c0,0,0.996,0,1.921,0C14.582,7.657,15.009,6.947,15.009,6.288L15.009,6.288z M14.294,10.089
	c0-0.465-0.285-1.056-1.483-1.056c-0.491,0-1.845,0-1.845,0l-0.523,2.424c0,0,0.997,0,1.922,0
	C13.866,11.457,14.294,10.748,14.294,10.089L14.294,10.089z M9.096,11.567c0-0.466-0.283-1.056-1.48-1.056c-0.494,0-1.846,0-1.846,0
	l-0.524,2.426c0,0,0.998,0,1.925,0C8.671,12.938,9.096,12.229,9.096,11.567L9.096,11.567z"/>
</svg>

<svg xmlns="http://www.w3.org/2000/svg" viewBox="0 0 16 16"><title>blackberry</title><path d="M5.51,4.12c0-.47-.29-1.06-1.48-1.06H2.18L1.66,5.49H3.58c1.5,0,1.93-.71,1.93-1.37Z"/><path d="M10.48,4.12c0-.47-.28-1.06-1.48-1.06H7.15L6.63,5.49H8.55c1.5,0,1.93-.71,1.93-1.37Z"/><path d="M4.84,7.77c0-.47-.29-1.05-1.48-1.05H1.52L1,9.14H2.91c1.5,0,1.93-.71,1.93-1.37Z"/><path d="M9.81,7.77c0-.47-.29-1.05-1.48-1.05H6.48L6,9.14H7.88c1.5,0,1.93-.71,1.93-1.37Z"/><path d="M15,6.29c0-.47-.28-1.06-1.48-1.06H11.68l-.53,2.43h1.92c1.5,0,1.93-.71,1.93-1.37Z"/><path d="M14.29,10.09C14.29,9.62,14,9,12.81,9H11l-.52,2.42h1.92c1.5,0,1.93-.71,1.93-1.37Z"/><path d="M9.1,11.57c0-.47-.28-1.06-1.48-1.06H5.77l-.52,2.43H7.17c1.5,0,1.93-.71,1.93-1.37Z"/></svg>
